X:1
T:Ständchen
T:Ständchen
T:Franz Schubert, arr. Johann Kaspar Mertz
T:Guitar
T:Romance
C:Franz Schubert, arr Johann Kaspar Mertz
%%score ( 1 2 3 4 )
L:1/8
Q:1/4=56
M:3/4
K:C
V:1 treble-8 nm="Klassieke gitaar" snm="Git."
V:2 treble-8 
V:3 treble-8 
V:4 treble-8 
V:1
!pp! z"^Tempo rubato" [EA] [Ac][EA] [Ac][EA] | z [FA] [Ac][FA] [Ac][FA] | %2
 z !2!!1![FA] [AB][FA] [AB][FA] | z"^espressivo il canto" [E^G] [GB][EG] [GB][EG] | %4
!mp!"^V" (3!1!e!2!fe !4!a3 e | (3ded a3 d | e3 d (3dcB | c6 | %8
 !1!!4![^ge']3 !4!!2![bd'] (3[bd'][ac']!4!!1![gb] | !1!c'6 |"^V" (3!1!e!2!fe !4!c'3 e | %11
 (3!4!ded !4!b3 !1!a | !4![Bg]3 !4!!1![df] (3f[ce]!4!d | e4 z !4!a | %14
 !4![Bg]3 !4!!1![df] (3f[ce]!4!d | e6 | !0!e>!1!^g !4!c'3 !4!b | !4!a>!0!e c3 A | %18
({fg)} (3fef !2!a3 f | e6 | (3!4!!1![df]!2![^ce][df] !4!!3![fa]3 [df] | e6 | %22
 !0!e>!1!^g !4!c'3 !4!b | a>!0!e ^c3 A |({^fg)} (3f^ef a3 f | e6 | %26
 (3!4!!2![bd']!3!!1![a^c'][bd'] !4!^f'3 !1!d' | !2!^c'6 |"^espressivo" f4 !>!!1!a>f | %29
 [^ce]3 .[ce] .[ce].[ce] | [de]3 .[^Ge] .[Be].[de] | e4 [^ce]2 | ^f4 !>!!1!a>f | %33
 [^ce]3 .[ce] .[ce].[ce] | [de]3 .[^Ge] .[Be].[de] |"^rall." e6 |"^smorz." e6 | %37
!mf! x2"^echo's"!p! (3!0!e!2!fe !1![ca]2 | x2!p! (3!4!d!open!ed !2!!1![fa]2 | z3/2!p! d/ e4- | %40
 e>!p!d (3dcB c2 |!mf! x2!mp! (3efe !1!!1!!4![cec']2 | x2!p! (3!1!ded !4!b2- | %43
 b>!p!a !0!!4![Bg-]4 | g>!p!f (3fed e2 |!mf! x2 !0!e>^g!mf! c'2 | z3/2!mp! !4!b/ a>e cA | %47
!mf! x2 (3f!mp!!0!ef a2 | z3/2!p! f/ !0![Ge]2 z2 | x2 (3!4!d!mp!^cd [Bf] z | z3/2!mp! d/ c2 z2 | %51
!mf! x2!mp! !0!e>^g!mf! c'2 | z3/2!mp! b/ a>e ^cA |!mf! x2 (3!4!^f!mp!^ef !1!a2 | %54
 z3/2!mp! [d^f]/ e4 |!mf! (3d^cd"^IX" (3[e^gd']^c'd' ^f'>d' | !2!^c'6 | %57
!mp!"^con agitazione"!<(! !0!e>e !1!^g>g !4!b>b!<)! |!mf! [Ba]2 [B^g]2 [AB]>B | %59
 e3"^VII" (^g/b/) b>!4!a | !4!^g2 x4 |"^VI" ^c'3 b (3!4!b!2!a!1!^g | %62
"_poco a poco riten.""^II" [^c^f]>^g a2 f z |!f!"^VII" [d^fb][dfb] [dfb][dfb] [dfb][dfb] | %64
"^II" [A^c^f][Acf] [Acf][Acf] [Acf][Acf] | x2 (3!3!^f!2!^ef !1!a2 | z3/2 [d^f]/ e4 | %67
 (3[^Gd]^cd"^IX" (3[e^gd']^c'd' ^f'>d' | !2!^c'6 |"^molto dim."!>(! !1!c'6!>)! | %70
"^ritenuto"!mp! f6 | e6 | ^c2 z2 e2 | f2- f/f/a/d'/ f'/d'/a/f/ | [^ce]3 .[ce] .[ce].[ce] | %75
 [de]3 .[^Ge] .[Be].[de] | e4 [^ce]2 | ^f2- f/f/a/d'/ ^f'/d'/a/f/ | [^ce]3 .[ce] .[ce].[ce] | %79
 [de]3 .[^Ge] .[Be].[de] |"^rall." e6 |"^smorz."!p! e6 |!pp! (3A,A^c (3ece (3aec | %83
 (3e^ce (3aec (3ecA | !fermata![A^cea]6 |] %85
V:2
 A,6 | F,6 | !4!D6 | E,6 | A,6 | A,2 x4 | E,6 | A,6 | E,4 E,2 | A,6 | A,6 | F,2 x4 | !2!G,6 | C6 | %14
 !2!G,6 | C6 | E,6 | A,4 x2 | F,2 x4 | C6 | !3!G,2 x4 | C6 | E,6 | A,4 x2 | D4 x2 | A,6 | E,6 | %27
 A,6 | A,6 | A,6 | E,6 | A,6 | A,6 | A,6 | E,6 | A,6 | A,6 | !3!A,6 | F,2 x4 | E,6 | C2 A,E AE | %41
 A,6 | F,2 x4 | !0!G7/2!mf! F/ (3FED | [CE]2 G2 c2 | E,6 | !3!A2 c2 A,2 | F,2 x4 | E2 z!mf! C EC | %49
 G,2 x4 | C2 EG [CE]G | E,6 | !3!A2 ^c2 A,2 | !3!D2 x4 | A,6 | E,4 E,2 | A,6 | E,2 E,2 E,2 | %58
 E,4 x2 | E,4 F2 | !1!E2 E,E F2 | ^E4 x2 | ^F,6 | ^F>^G A2 F2 | ^F,>^G, A,2 F,2 | D2 x4 | A,6 | %67
 E,4 E,2 | A,6 | A,6 | [DAB][FA] [AB][FA] [AB][FA] | [E,B,]6 | A,6 | A,2 A,2 A,2 | A,6 | E,6 | %76
 A,6 | A,2 A,2 A,2 | A,6 | E,6 | A,6 | A,6 | (3A,EA (3^cAc (3ecA | (3^cAc (3ecA (3cAE | A,6 |] %85
V:3
 x6 | x6 | x6 | x6 | z !3!A cA cA | z A BF BF | z E ^GE GE | z E AE AE | z !1!e !3!d!1!e e2 | x6 | %10
 z !3!A cA cA | z A !2!f!3!d fd | z !3![FG] [GB][FG] G[FG] | z [EG] [Gc][EG] [Gc]!3!c | %14
 z !3![FG] [GB][FG] G[FG] | c[EG] [Gc][EG] [Gc][EG] | z !2!^G !3!!1![de]!2!G [de]G | %17
 z !3!c AE CA, | z A !1!c!4!A !3!cA | z [EG] [Gc][EG] [Gc][EG] | z G !1!B!2!G BG | %21
 c[EG] [Gc][EG] [Gc][EG] | z !2!^G !3!!1![de]!2!G [de]G | z ^c AE ^CA, | z A [d^f]A dA | %25
 ^cE [Ac]E [Ac]E | z e !2!^g!open!B !1!d!3!g | x6 | d[FA] [Ad][FA] !4!!2![df]!3!A | z E AE AE | %30
 z E ^GE GE | ^cE AE AE | d[^FA] [Ad][FA] !4!!3![d^f]!2!A | z E AE AE | z E ^GE GE | %35
 ^cE [Ac]E [Ac]E | ^cE [Ac]E [Ac]E | x6 | x6 | x2 ^G4 | x6 | x6 | x6 | x6 | x6 | x6 | x6 | x6 | %48
 x6 | x6 | x6 | x6 | x6 | x6 | x6 | x6 | !3!a!1!e !4![^ca]e [ca]e | %57
 !0!!3![^GB][GB] [GB][GB] [GB][GB] | z3/2 !4!E/ ^G>G F2 | z [AB] [^GB][Bd] [Bd]2 | x6 | x6 | %62
 AA ^cA cA | x6 | x6 | x6 | E2 ^cE [Ac]E | x2 B2 d>^g | !3!a!1!e !4![^ca]e [ca]e | %69
 !arpeggio!!3!!2!!4![cea][ce] [ea][ce]!mp! [ea][ce] | x6 | [E^GB][EG] [GB][EG] [GB][EG] | %72
 [EA]E [A^c]E [Ac]E | x6 | z E AE AE | z E ^GE GE | ^cE AE AE | x6 | z E AE AE | z E ^GE GE | %80
 ^cE [Ac]E [Ac]E | ^cE [Ac]E [Ac]E | x6 | x6 | x6 |] %85
V:4
 x6 | x6 | x6 | x6 | x6 | x6 | x6 | x6 | x6 | !4!a!3!!2![ce] [ea][ce] [ea][ce] | x6 | x6 | x6 | %13
 x6 | x6 | x6 | x6 | x6 | x6 | x6 | x6 | x6 | x6 | x6 | x6 | x6 | x6 | !3!a!1!e !4![^ca]e [ca]e | %28
 x6 | x6 | x6 | x6 | x6 | x6 | x6 | x6 | x6 | (3:2:4E!4!F(E/!3!A/) !3!A7/2!mf! !3!E/ | %38
 (3DED !3!A7/2!mf! D/ | !2!E7/2!mf! D/ (3DCB, | x6 | (3:2:4EF(E/!3!A/) !3!A7/2!mf! !3!E/ | %42
 (3DED !2!B7/2!mf! !2!A/ | x6 | x6 | !1!E>!4!^G !3!c7/2 !0!B/ | x6 | %47
 (3:2:4!3!F!2!E(!3!F/A/) !3!A7/2!mf! F/ | x6 | (3D^CD !3!F7/2!mf! D/ | x6 | %51
 !1!E>!4!^G !3!c7/2!mf! !0!B/ | x6 | (3!2!^F^EF !3!A7/2!mf! !4!F/ | !1!E2 ^cE [Ac]E | ^G2 B2 d>^g | %56
 x6 | x6 | x6 | x6 | !2!!3![Bd][Bd] [Bd]^G !0!BA | ^GG ^cG !3!c2 | x6 | x6 | x6 | %65
 (3:2:4^F^E(F/A/) A7/2 F/ | x6 | x6 | x6 | x6 | x6 | x6 | x6 | d2- d/d/f/a/ a/a/f/d/ | x6 | x6 | %76
 x6 | d2- d/d/^f/a/ a/a/f/d/ | x6 | x6 | x6 | x6 | x6 | x6 | x6 |] %85

